X:1
T:[ID 6-76]
T:[ID 6-76]
T:Bezeichnung standardisiert: Menuet [mit Trio] Menuet Con Trio 21.
T:Urheber unbekannt Datum in der hier transkribierten schriftlichen Quelle: 1775
C:Urheber unbekannt
C:Datum in der hier transkribierten schriftlichen Quelle: 1775
L:1/8
M:3/4
K:A
V:1 treble 
V:1
 A2 cAec | a4 c2 | AF d2 c2 | B4 A2 | GABGAF | d4 c2 | GABGAF | G6 :: E2 GEBG | B2 AG A2 | dccBBA | %11
 A4 G2 | A2 cAec | fedcBA | GAFG E C6 :|[M:3/4]"^Trio" !fermata!A2 A2 A2 | E2 E2 E2 | C2 B,2 A,2 | %18
 e4 E2 | c4 G2 | c4 C2 | c2 F2 G2 | c2 B2 C2 :: c2 c2 c2 | d2 d2 c2 | e2 e2 e2 | e2 E4 | A2 A2 E2 | %28
 A2 AE A2 | A2 A2 E2 | A2 AE A2 | A2 D2 E2 | a2 c2 A2 :| %33

